img/shap-2.svg

<svg width="458" height="870" fill="none" xmlns="http://www.w3.org/2000/svg"><g opacity=".6"><path opacity=".08" d="M144.147 21.24l-81.892 99.323-8.473-6.996-1.157-.956-.955 1.158-19.701 23.89-.954 1.156 1.156.954 243.503 201.128 1.158.956.955-1.159 19.722-23.934.953-1.156-1.156-.954-9.287-7.668c3.72-5.472 5.568-10.791 5.931-15.943.443-6.292-1.341-12.178-4.374-17.613-6.023-10.792-17.154-20.087-26.347-27.683h0c-33.945-28.033-40.547-63.953-38.586-93.108 1.965-29.196 12.522-51.475 12.708-51.863l1.058-2.207.508-1.058-.905-.748-91.753-75.721-1.158-.956-.954 1.158zm83.467 78.893c-1.594 3.835-4.252 10.812-6.706 19.94l-20.572 1.981-1.491.144.141 1.491.588 6.187.143 1.496 1.495-.144 17.426-1.678a170.998 170.998 0 00-1.568 8.524l-19.749 1.901-1.492.144.142 1.492.588 6.187.142 1.495 1.495-.144 17.673-1.702c-.341 3.476-.576 7.06-.675 10.729l-18.288 1.761-1.491.144.142 1.491.588 6.188.142 1.495 1.495-.144 17.466-1.682c.188 4.813.637 9.733 1.408 14.71l-19.236 1.852-1.491.144.142 1.491.588 6.188.142 1.495 1.495-.144 20.126-1.938c4.312 18.329 13.399 37.035 30.25 53.756l-14.479 17.553-164.84-136.112 77.057-93.376 81.204 67.085zm53.293 200.976L241.295 268.4l14.158-17.164c.622.534 1.254 1.065 1.894 1.594 11.06 9.161 20.486 17.107 25.047 25.357 2.246 4.064 3.264 8.127 2.735 12.403-.405 3.261-1.721 6.741-4.222 10.519zm4.706 15.81l-9.956 12.032-231.64-191.325 9.917-12.048 231.679 191.341z" fill="#7D869D" stroke="#7D869D" stroke-width="3"/></g><g opacity=".6"><path d="M409.437 667.45c-22.06 15.126-41.586 32.452-72.679 44.81-31.094 12.359-61.899 43.381-57.315 104.582 63.495-5.77 84.024-52.737 88.61-60.198 4.586-7.462 41.384-89.194 41.384-89.194zm-.587.404c-18.619 20.665-152.552 173.392-162.247 190.379" opacity=".08" stroke="#505666" stroke-width="10" stroke-miterlimit="10" stroke-linecap="round"/></g></svg>

<svg width="458" height="870" viewBox="0 0 458 870" fill="none" xmlns="http://www.w3.org/2000/svg">
<g opacity="0.6">
<path opacity="0.08" d="M144.147 21.2403L62.2554 120.563L53.7821 113.567L52.6247 112.611L51.6698 113.769L31.9688 137.659L31.0152 138.815L32.1708 139.769L275.674 340.897L276.832 341.853L277.787 340.694L297.509 316.76L298.462 315.604L297.306 314.65L288.019 306.982C291.739 301.51 293.587 296.191 293.95 291.039C294.393 284.747 292.609 278.861 289.576 273.426C283.553 262.634 272.422 253.339 263.229 245.743L263.229 245.743C229.284 217.71 222.682 181.79 224.643 152.635C226.608 123.439 237.165 101.16 237.351 100.772L238.409 98.5652L238.917 97.5067L238.012 96.7595L146.259 21.0376L145.101 20.0824L144.147 21.2403ZM227.614 100.133C226.02 103.968 223.362 110.945 220.908 120.073L200.336 122.054L198.845 122.198L198.986 123.689L199.574 129.876L199.717 131.372L201.212 131.228L218.638 129.55C218.066 132.272 217.536 135.119 217.07 138.074L197.321 139.975L195.829 140.119L195.971 141.611L196.559 147.798L196.701 149.293L198.196 149.149L215.869 147.447C215.528 150.923 215.293 154.507 215.194 158.176L196.906 159.937L195.415 160.081L195.557 161.572L196.145 167.76L196.287 169.255L197.782 169.111L215.248 167.429C215.436 172.242 215.885 177.162 216.656 182.139L197.42 183.991L195.929 184.135L196.071 185.626L196.659 191.814L196.801 193.309L198.296 193.165L218.422 191.227C222.734 209.556 231.821 228.262 248.672 244.983L234.193 262.536L69.3525 126.424L146.41 33.0483L227.614 100.133ZM280.907 301.109L241.295 268.4L255.453 251.236C256.075 251.77 256.707 252.301 257.347 252.83C268.407 261.991 277.833 269.937 282.394 278.187C284.64 282.251 285.658 286.314 285.129 290.59C284.724 293.851 283.408 297.331 280.907 301.109ZM285.613 316.919L275.657 328.951L44.0163 137.626L53.9342 125.578L285.613 316.919Z" fill="#7D869D" stroke="#7D869D" stroke-width="3"/>
</g>
<g opacity="0.6">
<g opacity="0.08">
<path d="M409.437 667.45C387.377 682.576 367.851 699.902 336.758 712.26C305.664 724.619 274.859 755.641 279.443 816.842C342.938 811.072 363.467 764.105 368.053 756.644C372.639 749.182 409.437 667.45 409.437 667.45Z" stroke="#505666" stroke-width="10" stroke-miterlimit="10" stroke-linecap="round"/>
<path d="M408.85 667.854C390.231 688.519 256.298 841.246 246.603 858.233" stroke="#505666" stroke-width="10" stroke-miterlimit="10" stroke-linecap="round"/>
</g>
</g>
</svg>
